dist/svgs/devui-icons/editor/picture.svg

<?xml version="1.0" encoding="UTF-8"?>
<svg width="16px" height="16px" viewBox="0 0 16 16" version="1.1" xmlns="http://www.w3.org/2000/svg" xmlns:xlink="http://www.w3.org/1999/xlink">
    <title>释义_富文本编辑/picture16x16</title>
    <desc>Created with Sketch.</desc>
    <g id="释义_富文本编辑/picture16x16" stroke="none" stroke-width="1" fill="none" fill-rule="evenodd">
        <path d="M0,1 L16,1 L16,15 L0,15 L0,1 Z M1,2 L1,14 L15,14 L15,2 L1,2 Z M12,10 L9,11 L4,8 L1,10 L1,9 L4,7 L9,10 L12,9 L15,11 L15,12 L12,10 Z M12,7 C11.4477153,7 11,6.55228475 11,6 C11,5.44771525 11.4477153,5 12,5 C12.5522847,5 13,5.44771525 13,6 C13,6.55228475 12.5522847,7 12,7 Z" id="形状" fill="#293040"></path>
    </g>
</svg>

<svg xmlns="http://www.w3.org/2000/svg" viewBox="0 0 16 16"><path fill-rule="evenodd" d="M0 1h16v14H0V1zm1 1v12h14V2H1zm11 8l-3 1-5-3-3 2V9l3-2 5 3 3-1 3 2v1l-3-2zm0-3a1 1 0 110-2 1 1 0 010 2z"/></svg>
